assets/icons/ic-thoughts.svg

<svg width="25" height="25" viewBox="0 0 25 25" fill="none" xmlns="http://www.w3.org/2000/svg">
<path d="M12.25 2.49116L15.34 8.75116L22.25 9.76116L17.25 14.6312L18.43 21.5112L12.25 18.2612L6.07 21.5112L7.25 14.6312L2.25 9.76116L9.16 8.75116L12.25 2.49116Z" stroke="#37352F" stroke-width="2" stroke-linecap="round" stroke-linejoin="round"/>
</svg>

<svg xmlns="http://www.w3.org/2000/svg" width="25" height="25" fill="none" xmlns:v="https://vecta.io/nano"><path d="M12.25 2.491l3.09 6.26 6.91 1.01-5 4.87 1.18 6.88-6.18-3.25-6.18 3.25 1.18-6.88-5-4.87 6.91-1.01 3.09-6.26z" stroke="#37352f" stroke-width="2" stroke-linejoin="round"/></svg>
